icons/keyboard.svg

<svg width="35" height="35" viewBox="0 0 35 35" fill="none" xmlns="http://www.w3.org/2000/svg">
<g id="icon/hardware/keyboard_24px">
<path id="icon/hardware/keyboard_24px_2" fill-rule="evenodd" clip-rule="evenodd" d="M29.1666 7.29175H5.83329C4.22913 7.29175 2.93121 8.60425 2.93121 10.2084L2.91663 24.7918C2.91663 26.3959 4.22913 27.7084 5.83329 27.7084H29.1666C30.7708 27.7084 32.0833 26.3959 32.0833 24.7918V10.2084C32.0833 8.60425 30.7708 7.29175 29.1666 7.29175ZM29.1666 10.2084V24.7917H5.83326V10.2084H29.1666ZM18.9583 11.6667H16.0416V14.5834H18.9583V11.6667ZM16.0416 16.0417H18.9583V18.9584H16.0416V16.0417ZM14.5833 11.6667H11.6666V14.5834H14.5833V11.6667ZM11.6666 16.0417H14.5833V18.9584H11.6666V16.0417ZM10.2083 16.0417H7.29163V18.9584H10.2083V16.0417ZM7.29163 11.6667H10.2083V14.5834H7.29163V11.6667ZM23.3333 20.4167H11.6666V23.3334H23.3333V20.4167ZM20.4166 16.0417H23.3333V18.9584H20.4166V16.0417ZM23.3333 11.6667H20.4166V14.5834H23.3333V11.6667ZM24.7916 16.0417H27.7083V18.9584H24.7916V16.0417ZM27.7083 11.6667H24.7916V14.5834H27.7083V11.6667Z" fill="black" fill-opacity="0.2"/>
</g>
</svg>

<svg width="35" height="35" fill="none" xmlns="http://www.w3.org/2000/svg"><path fill-rule="evenodd" clip-rule="evenodd" d="M29.167 7.292H5.833a2.913 2.913 0 0 0-2.902 2.916l-.014 14.584a2.925 2.925 0 0 0 2.916 2.916h23.334a2.925 2.925 0 0 0 2.916-2.916V10.208a2.925 2.925 0 0 0-2.916-2.916zm0 2.916v14.584H5.833V10.208h23.334zm-10.209 1.459h-2.916v2.916h2.916v-2.916zm-2.916 4.375h2.916v2.916h-2.916v-2.916zm-1.459-4.375h-2.916v2.916h2.916v-2.916zm-2.916 4.375h2.916v2.916h-2.916v-2.916zm-1.459 0H7.292v2.916h2.916v-2.916zm-2.916-4.375h2.916v2.916H7.292v-2.916zm16.041 8.75H11.667v2.916h11.666v-2.916zm-2.916-4.375h2.916v2.916h-2.916v-2.916zm2.916-4.375h-2.916v2.916h2.916v-2.916zm1.459 4.375h2.916v2.916h-2.916v-2.916zm2.916-4.375h-2.916v2.916h2.916v-2.916z" fill="#000" fill-opacity=".2"/></svg>
